svg/u1f6e2.svg

<svg viewBox="0 0 128 128" xmlns="http://www.w3.org/2000/svg">
  <g>
    <g>
      <path d="M102.72,78.5c0-1.45-0.45-2.86-1.28-4.21V53.7c0.83-1.34,1.28-2.75,1.28-4.21s-0.45-2.86-1.28-4.21 V20.52H26.55v24.77c-0.83,1.34-1.28,2.75-1.28,4.21s0.45,2.86,1.28,4.21V74.3c-0.83,1.34-1.28,2.75-1.28,4.21s0.45,2.86,1.28,4.21 v20.59c-0.83,1.34-1.28,2.75-1.28,4.21C25.28,116.62,42.61,124,64,124c21.39,0,38.72-7.38,38.72-16.49c0-1.45-0.45-2.86-1.28-4.21 V82.71C102.28,81.37,102.72,79.96,102.72,78.5z" fill="#2686C6"/>
      <g>
        <path d="M90.34,58.37c5.29-2.25,8.7-5.12,9.4-7.84c0.16-0.63,0.75-1.04,1.38-1.04 c0.77,0,1.38,0.62,1.45,1.35c0.09-0.45,0.14-0.9,0.14-1.35c0-1.45-0.45-2.86-1.28-4.21V20.52H85.01l-24.37,16.4l11.54,2.8 c2.75,0.67,4.7,3.21,4.7,6.14v11.21c0,2.62,2.33,4.6,4.8,4.04C84.84,60.39,87.76,59.47,90.34,58.37z" fill="#2167A1"/>
        <path d="M101.45,74.3V58.07v-4.27v-0.1c-3.14,5.08-11.82,9.2-23.12,11.12c-0.02,0-0.05,0.01-0.07,0.01 c-4.41,0.74-9.22,1.15-14.25,1.15c-13.73,0-25.79-3.05-32.66-7.64c12.85,14.2,38.33,11.84,38.33,11.84 c0.93-0.06,1.84-0.13,2.74-0.22c2.4-0.23,4.47,1.72,4.47,4.21v13.55c0,1.73,1.52,3.05,3.16,2.73c3.78-0.76,7.27-1.79,10.3-3.08 c5.29-2.25,8.7-5.12,9.4-7.84c0.16-0.63,0.75-1.04,1.38-1.04c0.77,0,1.38,0.62,1.45,1.35c0.09-0.45,0.14-0.9,0.14-1.35 C102.72,77.05,102.28,75.64,101.45,74.3z" fill="#2167A1"/>
        <path d="M101.45,103.3v-15v-5.49v-0.1c-3.14,5.08-11.82,9.2-23.12,11.12c-0.02,0-0.05,0.01-0.07,0.01 c-4.41,0.74-9.22,1.15-14.25,1.15c-15.49,0-28.85-3.87-35.04-9.47c11.73,17.58,40.71,14.9,40.71,14.9 c0.96-0.06,1.9-0.14,2.83-0.23c2.36-0.23,4.39,1.68,4.39,4.13v8.81c0,3.7,3.38,6.39,6.86,5.48c2.37-0.63,4.59-1.37,6.6-2.23 c5.29-2.25,8.7-5.12,9.4-7.84c0.16-0.63,0.75-1.04,1.38-1.04c0.31,0,0.87,0.52,1.48,1.24c0.07-0.41,0.11-0.83,0.11-1.24 C102.72,106.06,102.28,104.65,101.45,103.3z" fill="#2167A1"/>
      </g>
      <ellipse cx="64" cy="20.49" rx="38.72" ry="16.49" fill="#B0BEC5"/>
      <g>
        <path d="M37.73,58.37c-5.29-2.25-8.7-5.12-9.4-7.84c-0.16-0.63-0.75-1.04-1.38-1.04h0 c-0.95,0-1.67,0.93-1.42,1.88c2.01,7.54,15.96,13.53,33.59,14.47c0.83,0.04,1.53-0.65,1.53-1.51l0,0c0-0.8-0.61-1.45-1.39-1.5 C51.09,62.41,43.58,60.86,37.73,58.37z" fill="#56BFE6"/>
        <path d="M37.73,87.38c-5.29-2.25-8.7-5.12-9.4-7.84c-0.16-0.63-0.75-1.04-1.38-1.04h0 c-0.95,0-1.67,0.93-1.42,1.88c2.01,7.54,15.96,13.53,33.59,14.47c0.83,0.04,1.53-0.65,1.53-1.51v0c0-0.8-0.61-1.45-1.39-1.5 C51.09,91.42,43.58,89.87,37.73,87.38z" fill="#56BFE6"/>
        <path d="M37.73,116.39c-5.29-2.25-8.7-5.12-9.4-7.84c-0.16-0.63-0.75-1.04-1.38-1.04h0 c-0.95,0-1.67,0.93-1.42,1.88c2.01,7.54,15.96,13.53,33.59,14.47c0.83,0.04,1.53-0.65,1.53-1.51l0,0c0-0.8-0.61-1.45-1.39-1.5 C51.09,120.43,43.58,118.88,37.73,116.39z" fill="#56BFE6"/>
      </g>
      <path d="M29.42,23.73c0.05-4.85,4.52-7.14,8.92-9.06c6.81-2.97,15.92-4.6,25.65-4.6s18.85,1.63,25.65,4.6 c4.4,1.92,9.02,4.07,8.93,9.06l2.86-2.44C99.35,11.19,83.13,5.35,64,5.35s-35.93,5.69-37.45,15.94L29.42,23.73z" fill="#2167A1"/>
      <path d="M64,7c9.95,0,19.26,1.63,26.21,4.59c5.96,2.54,9.52,5.86,9.52,8.9c0,3.03-3.56,6.36-9.52,8.9 c-6.95,2.96-16.26,4.59-26.21,4.59s-19.26-1.63-26.21-4.59c-5.96-2.54-9.52-5.86-9.52-8.9c0-3.03,3.56-6.36,9.52-8.9 C44.74,8.63,54.05,7,64,7 M64,4c-21.39,0-38.72,7.38-38.72,16.49c0,9.11,17.34,16.49,38.72,16.49s38.72-7.38,38.72-16.49 C102.72,11.38,85.39,4,64,4L64,4z" fill="#B9E4EA"/>
      <path d="M77.79,26.89v-2.47l11.59-0.13v2.6c0,1.36-2.59,2.47-5.79,2.47S77.79,28.25,77.79,26.89z" fill="#2167A1"/>
      <path d="M43.06,16.98v-1.74c0.56-0.14,6.88,0.16,7.57,0.16v1.59c0,0.89-1.69,1.61-3.78,1.61 C44.75,18.59,43.06,17.87,43.06,16.98z" fill="#2167A1"/>
      <ellipse cx="83.59" cy="24.64" rx="5.79" ry="2.47" fill="#E0E0E0"/>
      <ellipse cx="46.84" cy="15.39" rx="3.78" ry="1.61" fill="#E0E0E0"/>
    </g>
    <path d="M35.22,29.81 c3.99,2.06,8.92,3.47,13.08,4.18" fill="none" stroke="#FFFFFF" stroke-width="3" stroke-linecap="round" stroke-miterlimit="10"/>
  </g>
</svg>

<svg viewBox="0 0 128 128" xmlns="http://www.w3.org/2000/svg">
  <defs/>
  <path d="M102.72,78.5 C102.72,77.05 102.27,75.64 101.44,74.29 L101.44,53.7 C102.27,52.36 102.72,50.95 102.72,49.49 C102.72,48.03 102.27,46.63 101.44,45.28 L101.44,20.52 L26.55,20.52 L26.55,45.29 C25.72,46.63 25.27,48.04 25.27,49.5 C25.27,50.96 25.72,52.36 26.55,53.71 L26.55,74.3 C25.72,75.64 25.27,77.05 25.27,78.51 C25.27,79.97 25.72,81.37 26.55,82.72 L26.55,103.31 C25.72,104.65 25.27,106.06 25.27,107.52 C25.28,116.62 42.61,124 64,124 C85.39,124 102.72,116.62 102.72,107.51 C102.72,106.06 102.27,104.65 101.44,103.3 L101.44,82.71 C102.28,81.37 102.72,79.96 102.72,78.5 Z" fill="#2686C6"/>
  <path d="M90.34,58.37 C95.63,56.12 99.04,53.25 99.74,50.53 C99.9,49.9 100.49,49.49 101.12,49.49 C101.89,49.49 102.5,50.11 102.57,50.84 C102.66,50.39 102.71,49.94 102.71,49.49 C102.71,48.04 102.26,46.63 101.43,45.28 L101.43,20.52 L85.01,20.52 L60.64,36.92 L72.18,39.72 C74.93,40.39 76.88,42.93 76.88,45.86 L76.88,57.07 C76.88,59.69 79.21,61.67 81.68,61.11 C84.84,60.39 87.76,59.47 90.34,58.37 Z" fill="#2167A1"/>
  <path d="M101.45,74.3 L101.45,58.07 L101.45,53.8 L101.45,53.7 C98.31,58.78 89.63,62.9 78.33,64.82 C78.31,64.82 78.28,64.83 78.26,64.83 C73.85,65.57 69.04,65.98 64.01,65.98 C50.28,65.98 38.22,62.93 31.35,58.34 C44.2,72.54 69.68,70.18 69.68,70.18 C70.61,70.12 71.52,70.05 72.42,69.96 C74.82,69.73 76.89,71.68 76.89,74.17 L76.89,87.72 C76.89,89.45 78.41,90.77 80.05,90.45 C83.83,89.69 87.32,88.66 90.35,87.37 C95.64,85.12 99.05,82.25 99.75,79.53 C99.91,78.9 100.5,78.49 101.13,78.49 C101.9,78.49 102.51,79.11 102.58,79.84 C102.67,79.39 102.72,78.94 102.72,78.49 C102.72,77.05 102.28,75.64 101.45,74.3 Z" fill="#2167A1"/>
  <path d="M101.45,103.3 L101.45,88.3 L101.45,82.81 L101.45,82.71 C98.31,87.79 89.63,91.91 78.33,93.83 C78.31,93.83 78.28,93.84 78.26,93.84 C73.85,94.58 69.04,94.99 64.01,94.99 C48.52,94.99 35.16,91.12 28.97,85.52 C40.7,103.1 69.68,100.42 69.68,100.42 C70.64,100.36 71.58,100.28 72.51,100.19 C74.87,99.96 76.9,101.87 76.9,104.32 L76.9,113.13 C76.9,116.83 80.28,119.52 83.76,118.61 C86.13,117.98 88.35,117.24 90.36,116.38 C95.65,114.13 99.06,111.26 99.76,108.54 C99.92,107.91 100.51,107.5 101.14,107.5 C101.45,107.5 102.01,108.02 102.62,108.74 C102.69,108.33 102.73,107.91 102.73,107.5 C102.72,106.06 102.28,104.65 101.45,103.3 Z" fill="#2167A1"/>
  <path d="M102.72,20.49 A38.72 16.49 0 1 1 25.28,20.49 A38.72 16.49 0 1 1 102.72,20.49 Z" fill="#B0BEC5"/>
  <path d="M37.73,58.37 C32.44,56.12 29.03,53.25 28.33,50.53 C28.17,49.9 27.58,49.49 26.95,49.49 L26.95,49.49 C26,49.49 25.28,50.42 25.53,51.37 C27.54,58.91 41.49,64.9 59.12,65.84 C59.95,65.88 60.65,65.19 60.65,64.33 L60.65,64.33 C60.65,63.53 60.04,62.88 59.26,62.83 C51.09,62.41 43.58,60.86 37.73,58.37 Z" fill="#56BFE6"/>
  <path d="M37.73,87.38 C32.44,85.13 29.03,82.26 28.33,79.54 C28.17,78.91 27.58,78.5 26.95,78.5 L26.95,78.5 C26,78.5 25.28,79.43 25.53,80.38 C27.54,87.92 41.49,93.91 59.12,94.85 C59.95,94.89 60.65,94.2 60.65,93.34 L60.65,93.34 C60.65,92.54 60.04,91.89 59.26,91.84 C51.09,91.42 43.58,89.87 37.73,87.38 Z" fill="#56BFE6"/>
  <path d="M37.73,116.39 C32.44,114.14 29.03,111.27 28.33,108.55 C28.17,107.92 27.58,107.51 26.95,107.51 L26.95,107.51 C26,107.51 25.28,108.44 25.53,109.39 C27.54,116.93 41.49,122.92 59.12,123.86 C59.95,123.9 60.65,123.21 60.65,122.35 L60.65,122.35 C60.65,121.55 60.04,120.9 59.26,120.85 C51.09,120.43 43.58,118.88 37.73,116.39 Z" fill="#56BFE6"/>
  <path d="M29.42,23.73 C29.47,18.88 33.94,16.59 38.34,14.67 C45.15,11.7 54.26,10.07 63.99,10.07 C73.72,10.07 82.84,11.7 89.64,14.67 C94.04,16.59 98.66,18.74 98.57,23.73 L101.43,21.29 C99.35,11.19 83.13,5.35 64,5.35 C44.87,5.35 28.07,11.04 26.55,21.29 L29.42,23.73 Z" fill="#2167A1"/>
  <path d="M64,7 C73.95,7 83.26,8.63 90.21,11.59 C96.17,14.13 99.73,17.45 99.73,20.49 C99.73,23.52 96.17,26.85 90.21,29.39 C83.26,32.35 73.95,33.98 64,33.98 C54.05,33.98 44.74,32.35 37.79,29.39 C31.83,26.85 28.27,23.53 28.27,20.49 C28.27,17.46 31.83,14.13 37.79,11.59 C44.74,8.63 54.05,7 64,7 M64,4 C42.61,4 25.28,11.38 25.28,20.49 C25.28,29.6 42.62,36.98 64,36.98 C85.38,36.98 102.72,29.6 102.72,20.49 C102.72,11.38 85.39,4 64,4 L64,4 Z" fill="#B9E4EA"/>
  <path d="M77.79,26.89 L77.79,24.42 L89.38,24.29 L89.38,26.89 C89.38,28.25 86.79,29.36 83.59,29.36 C80.39,29.36 77.79,28.25 77.79,26.89 Z" fill="#2167A1"/>
  <path d="M43.06,16.98 L43.06,15.24 C43.62,15.1 49.94,15.4 50.63,15.4 L50.63,16.99 C50.63,17.88 48.94,18.6 46.85,18.6 C44.75,18.59 43.06,17.87 43.06,16.98 Z" fill="#2167A1"/>
  <path d="M89.38,24.64 A5.79 2.47 0 1 1 77.8,24.64 A5.79 2.47 0 1 1 89.38,24.64 Z" fill="#E0E0E0"/>
  <path d="M50.62,15.39 A3.78 1.61 0 1 1 43.06,15.39 A3.78 1.61 0 1 1 50.62,15.39 Z" fill="#E0E0E0"/>
  <path d="M35.908,28.477 Q41.337,31.28 48.552,32.511 Q50.031,32.764 49.779,34.242 Q49.526,35.721 48.048,35.469 Q40.374,34.159 34.532,31.143 Q33.865,30.799 33.704,30.294 Q33.543,29.788 33.887,29.122 Q34.575,27.789 35.908,28.477 Z" fill="#FFFFFF"/>
</svg>
